src/lib/packages/icons/src/assets/filled/message-plus.svg

<svg xmlns="http://www.w3.org/2000/svg" width="24" height="24" fill="none"><path fill="currentColor" d="M21 6v5.979c0 .209-.204.344-.403.28A5.079 5.079 0 0 0 19 12c-2.76 0-5 2.24-5 5 0 .222.013.444.041.661.015.115-.06.339-.295.339H6l-3 3V6c0-2 1-3 3-3h12c2 0 3 1 3 3Zm0 9.75h-1.75V14a.75.75 0 0 0-1.5 0v1.75H16a.75.75 0 0 0 0 1.5h1.75V19a.75.75 0 0 0 1.5 0v-1.75H21a.75.75 0 0 0 0-1.5Z"/></svg>

<svg width="24" height="24" viewBox="0 0 24 24" fill="none" xmlns="http://www.w3.org/2000/svg">
<path d="M21 6V11.979C21 12.188 20.7959 12.3231 20.5969 12.2581C20.0959 12.0921 19.557 12 19 12C16.24 12 14 14.24 14 17C14 17.222 14.013 17.444 14.041 17.661C14.056 17.776 13.9801 18 13.7461 18H6L3 21V6C3 4 4 3 6 3H18C20 3 21 4 21 6ZM21 15.75H19.25V14C19.25 13.586 18.914 13.25 18.5 13.25C18.086 13.25 17.75 13.586 17.75 14V15.75H16C15.586 15.75 15.25 16.086 15.25 16.5C15.25 16.914 15.586 17.25 16 17.25H17.75V19C17.75 19.414 18.086 19.75 18.5 19.75C18.914 19.75 19.25 19.414 19.25 19V17.25H21C21.414 17.25 21.75 16.914 21.75 16.5C21.75 16.086 21.414 15.75 21 15.75Z" fill="currentColor"/>
</svg>
